X: 34762
T: Road To Monalea, The
R: reel
M: 4/4
K: Gdorian
|:GFDF ~G3A|GFDC A,G,G,D|FDCD FGAG|FDCA, {B,}A,G,G,D|
GFDF ~G3A|GFDC A,CG,2|A,CDC FGAG|FDCA, {B,}A,G,G,2:|
|:GFDF G2FG|Addc AcGd|cAGA ~F3G|Acdc cA~G2|
GFDF ~G2FG|Addc AcGE|FC~C2 FGAG|FDCA, G,4:|

